X:528
T:Aint Misbehaving
M:4/4
L:1/8
Q:1/8=100
K:Eb
E/2 E>E B>B- B2 | F>G- GF c4 | z B/2 c>B e>e- e>d | (3f2e2c2 G_G/2F/2- F
2- |
F>E F>E B>B- B2 | F>G- G<F c2 B>G- | G8- | G8 :||
